!!!COM: Music21
!!!OTL: waltz_Sheilas-Wedding
!!!OMV: waltz_Sheilas-Wedding
**kern
*clefG2
*k[f#]
*G:
*M3/4
=1
8bL
8ccJ
4b
4g
=
4a
2dd
=
4.g
8f#
8eL
8gJ
=
4f#
2b
=
8eL
8f#J
4g
4e
=
4d
4.g
8f#
=
4e
4g
8bL
8gJ
=
4a
4.dd
8cc
=
8bL
8ccJ
4b
4g
!!linebreak:original
=
4a
2dd
=
4.g
8f#
8eL
8gJ
=
4f#
2b
=
8eeL
8ddJ
4cc
4ee
=
4dd
4g
4b
=
8ccL
8bJ
4a
4f#
=
2.g
=||
*M3/4
8bL
8ccJ
4b
4g
=
4a
2dd
!!linebreak:original
=
4.g
8f#
8eL
8gJ
=
4f#
2b
=
8eL
8f#J
4g
4e
=
4d
4.g
8f#
=
4e
4g
8bL
8gJ
=
4a
4.dd
8cc
=
8bL
8ccJ
4b
4g
=
4a
2dd
=
4.g
8f#
8eL
8gJ
=
4f#
2b
!!linebreak:original
=
8eeL
8ddJ
4cc
4ee
=
4dd
4g
4b
=
8ccL
8bJ
4a
4f#
=
2.g
=||
4.ee
8ff#
4gg
=
4ff#
2b
=
8eeL
8ddJ
4cc
4ee
=
2.dd
=
4.ee
8ff#
4gg
=
4ff#
2b
=
8ggL
8aaJ
4bb
4gg
!!linebreak:original
=
2.aa
=
4.bb
8aa
8ggL
8bbJ
=
4aa
2dd
=
8ggL
8ff#J
8eeL
8ff#J
8ggL
8eeJ
=
2ff#
8ggL
8ff#J
=
8eeL
8ddJ
4cc
4ee
=
4dd
4g
4b
=
8ccL
8bJ
4a
4f#
=
2.g
=||
4.ee
8ff#
4gg
!!linebreak:original
=
4ff#
2b
=
8eeL
8ddJ
4cc
4ee
=
2.dd
=
4.ee
8ff#
4gg
=
4ff#
2b
=
8ggL
8aaJ
4bb
4gg
=
2.aa
=
4.bb
8aa
8ggL
8bbJ
=
4aa
2dd
=
8ggL
8ff#J
8eeL
8ff#J
8ggL
8eeJ
!!linebreak:original
=
2ff#
8ggL
8ff#J
=
8eeL
8ddJ
4cc
4ee
=
4dd
4g
4b
=
8ccL
8bJ
4a
4f#
=
2.g
=||
*-
